img/svg/facebook.svg

<svg width="48" height="48" viewBox="0 0 48 48" xmlns="http://www.w3.org/2000/svg">
<g clip-path="url(#clip0_125_105)">
<path d="M24 0C10.7453 0 0 10.7453 0 24C0 35.255 7.74912 44.6995 18.2026 47.2934V31.3344H13.2538V24H18.2026V20.8397C18.2026 12.671 21.8995 8.8848 29.9194 8.8848C31.44 8.8848 34.0637 9.18336 35.137 9.48096V16.129C34.5706 16.0694 33.5866 16.0397 32.3645 16.0397C28.4294 16.0397 26.9088 17.5306 26.9088 21.4061V24H34.7482L33.4013 31.3344H26.9088V47.8243C38.7926 46.3891 48.001 36.2707 48.001 24C48 10.7453 37.2547 0 24 0Z"/>
</g>
<defs>
<clipPath id="clip0_125_105">
<rect width="48" height="48"/>
</clipPath>
</defs>
</svg>

<svg width="48" height="48" viewBox="0 0 48 48" xmlns="http://www.w3.org/2000/svg"><g clip-path="url(#clip0_125_105)"><path d="M24 0C10.745 0 0 10.745 0 24c0 11.255 7.75 20.7 18.203 23.293V31.334h-4.95V24h4.95v-3.16c0-8.169 3.697-11.955 11.716-11.955 1.521 0 4.145.298 5.218.596v6.648c-.566-.06-1.55-.09-2.773-.09-3.935 0-5.455 1.492-5.455 5.367V24h7.84L33.4 31.334h-6.49v16.49C38.793 46.39 48 36.271 48 24 48 10.745 37.255 0 24 0z"/></g><defs><clipPath id="clip0_125_105"><path d="M0 0h48v48H0z"/></clipPath></defs></svg>
